X:1
T:The Original Chicago Blues
T:The Original CHICAGO BLUES 
T:James White
T:Copyright MCMXV by Frank K. Root &amp; Co.
T:Copyright MCMXV by Frank K. Root &amp; Co.
T:Copyright MCMXV by Frank K. Root &amp; Co.
C:James White
Z:Copyright MCMXV by Frank K. Root & Co.
%%score { ( 1 4 ) | ( 2 3 ) }
L:1/8
Q:1/4=60
M:2/4
K:F
V:1 treble nm="Piano" snm="Pno."
V:4 treble 
V:2 bass 
V:3 bass 
V:1
"^Tempo di Blues\n\n\n""^Draggy" ^g/a/!^![c'f']/- | [c'f']/^G/B/!^![cf]/- [cf]/^G,/A,/!^![CF]/- | %2
 [CF]/c/d/A/ c/^G/A/F/- |!<(! F(G/^G/!<)! A/)d/c/A/ |!<(! F(G/^G/ A/>)!<)!F/[_E=G]/>F/ | %5
 [D_A]/>F/[DG]- [DG]/>F/[DG]/>F/ | [D_A]/F/[DG]/[DF]/- [DF]/>C/[_A,D]/>C/ | %7
 [=A,_E]/>C/[A,D]- [A,D]/>C/[A,D]/>C/ | [A,_E]/C/[A,E]/[A,C]/- [A,C]/>!<(!c/[Bd]/>=e/!<)! | %9
 [Af]/c/d/B/ c/^G/A/F/- |!<(! F(G/^G/!<)! A/)d/c/A/ |!<(! F(G/^G/!<)! A/)d/c/A/ | %12
 F/>(=B/[^F_Bc]/>)(=B/ [G_Bc]) z | z/ ^G/A/!^![cf]/- [cf]/^G,/A,/!^![CF]/- | %14
 [CF]/c/d/A/ c/^G/A/F/- |!<(! F(G/^G/!<)! A/)d/c/A/ | F(G/^G/ A/>)F/[_E=G]/>F/ | %17
 [DA]/>F/[DG]- [DG]/>F/[DG]/>F/ | [D_A]/F/[DG]/[DF]/- [DF]/>C/[_A,D]/>C/ | %19
 [=A,_E]/>C/[A,D]- [A,D]/>C/[A,D]/>C/ | [A,_E]/C/[A,D]/[A,C]/- [A,C]/>!<(!c/[Bd]/>=e/!<)! | %21
 [Af]/c/d/A/ c/^G/A/F/- | F!<(!(G/^G/ A/)!<)!d/c/A/ | F!<(!(D/^D/ E/)!<)!c/B/=D/ | %24
 C/A/[B,G]/[A,F]/- [A,F]/F/G/^G/ ||[K:Bb] [EA][EG] [EF]/[EA][EF]/ | [EG][EF]/[EA]/- [EA]/F/G/^G/ | %27
!<(! !>![EA]!>![E_A] !>![EG]<!>![E_G]!<)! | !>![EF]!>(!F/=E/ F/F^F/!>)! |: %29
!p!!f! G!<(!G/^F/ G/G^G/!<)! | AA/^G/ A/Ac/ | F/G/A/F/ G/A/F/G/- | %32
 G!>(![DF]/[^C=E]/ [DF]/[DF][D^F]/!>)! |!<(! GG/^F/ G/G!<)!^G/ | AA/^G/ A/Ac/ | %35
 F/G/A/F/ G/A/F/G/- | G!>(![DF]/[^C=E]/ [DF]/[DF][D^F]/!>)! |!<(! GG/^F/ G/G!<)!^G/ | %38
 AA/^G/ A/Ac/ | F/G/A/F/ G/A/F/G/- | G!<(![FBd] [G=Be][FBd]!<)! | z/ ^c/[=EBd]/^F/ G<[EBc] | %42
 z/ ^c/[=EBd]/^F/ G<[EBc] | z/ ^c/[_EAd]/^G/ A<[E=c] |1 %44
 [DB]!<(![DF]/[^C=E]/ [DF]/[DF][D^F]/!<)! :|2!>(! [DB] z z2!>)! |: [Ff]/=B/[Fd]/B/ [Ff]/B/[Fd]/B/ | %47
 [Ff]/=B/d/!^![Ff]/- [Ff]/>^F/G/>A/ | _B/=E/G/E/ B/E/G/E/ | B/=E/G/!^![EB]/- [EB]/>^F/G/>^G/ | %50
 [_EA]/F/[EG]/F/ [EA]/F/[EG]/F/ | [EA]/F/G/!^![EA]/- [EA]/>F/[EG]/>A/ |1 %52
!<(! [DB]/>[Ec]/[Fd]/>B/!<)!!>(! [G_d]/>c/[GB]!>)! |!<(! [F=d]/.F/.G/.A/ .B/.c/.d/.e/!<)! :|2 %54
!<(! [DB]/>[Ec]/[Fd]/>B/!<)! [Ec]/>B/[EA] | [DB] z!<(! z2!<)! |: %56
[K:F]"^2d time Grandioso" z B/>c/ _dB/>c/ | _d/c/d/f/- f/_e/d | cA/>B/ cA/>B/ | c/=B/c/e/- e/d/c | %60
 BG/>A/ BG/>A/ | B/A/B/c/- c/B/A/G/ |1 !>!F/!>!^F/!>!G/!>!^G/ !>!B/!>!e!>!d/ | %63
 !>!c!<(! z z2!<)! :|2!<(! !>!F/!>!G/!>!A/!>!B/!<)! !>!c/!>!A!>!G/ | !>!F!^![EBc] !^![FAcf] z || %66
V:2
 z/ z |!mf! [F,,F,][A,CF] C,F,- | [F,,F,][A,CF] C,[B,CE] | [F,,F,] z F,2- | F, z F,2 | %5
 B,,F, F,,F, | B,,F, F,,F, | C,F, F,,F, | C,F, F,,[C,G,] | [F,,F,][A,CF] C,[B,CE] | %10
 [F,,F,] z F,2- | F, z F,2- | [F,A,]!>![C,C]- [C,C]!^![C,,C,] | !^![F,,F,][A,CF] C,F,- | %14
"_British copyright secured" [F,,F,][A,CF] C,[B,CE] | [F,,F,] z F,2- |!<(! F, z!<)! F,2 | %17
 B,,F, F,,F, | B,,F, F,,F, | C,F, F,,F, | C,F, F,,[C,G,] | [F,,F,][A,CF] C,[B,CE] | %22
 [F,,F,] z F,2- | F, z C,2- |!>(! C,C,/F,,/- [F,,C,]/!>)!A,/B,/=B,/ || %25
[K:Bb]!f!"^marcato" CB, A,/CA,/ | B,A,/C/- C/A,/B,/=B,/ | !>![F,C]!>![^F,C] !>![G,C]<!>![^G,C] | %28
 !>![A,C] z z2 |: C,[G,B,C] [A,,G,][G,B,C] | C,[F,A,C] [F,,F,][F,A,C] | B,,[F,B,] [F,,F,][F,A,] | %32
 B,,[F,B,] [F,,F,][F,B,] | D,[G,B,C] [G,,G,][G,B,C] | C,[F,A,C] [F,,F,][F,A,C] | %35
 B,,[F,B,] [F,,F,][F,B,] | B,,[F,B,] [F,,F,][F,B,] | C,[G,B,C] [G,,G,][G,B,C] | %38
 C,[F,A,C] [F,,F,][F,A,C] | B,,[F,B,] [F,,F,][F,B,] | ([B,,B,][_A,,_A,]) [G,,G,][F,G,=B,] | %41
{/^F,} !^![C,G,]3 !^![^F,,^F,] | !^![G,,G,]3 !^![_G,,_G,] | !^![F,,F,]3 !>![G,,G,]/!>![A,,A,]/ |1 %44
 !>![B,,B,] z z2 :|2 !>![B,,B,]!>![B,,B,] !>![A,,A,]!>![_A,,_A,] |: %46
!mf! [G,,G,][F,G,=B,] [D,,D,][F,G,B,] | [G,,G,][F,G,=B,] [F,G,B,]!>![G,,G,] | %48
 C,[G,_B,C] [A,,G,][G,B,C] | C,[G,B,C] [G,B,C]!>!C, | [F,,F,][F,A,C] C,[F,A,C] | %51
 [F,,F,][F,A,C] [F,A,C]!>![F,,F,] |1 B,,[F,B,D] [E,,E,][E,G,_D] | [B,,B,] z z !>![_A,,_A,] :|2 %54
 B,,[F,B,D] [F,,F,][F,A,C] | [B,,B,] z"^marcato" !>![B,,B,]!>![C,C] |: %56
[K:F]!f!!ff! !>![_D,_D]3 !>![C,C] | !>![B,,B,]3 !>![_D,_D] | !>![C,C]3 !>![B,,B,] | %59
 !>![A,,A,]3 !>![_A,,_A,] | !>![G,,A,]3 !>![F,,F,] | !>![E,,E,]3 !>![C,,C,] |1 %62
{/F,,} !>!F,/!>!^F,/!>!G,/!>!^G,/ !>!A,<(!^![=F,-=B,] | [F,C]) z !>![_B,,_B,]!>![C,C] :|2 %64
{/F,,} !>!F,/!>!G,/!>!A,/!>!B,/ !>!C/!>!A,!>!G,/ | !>!F,!^![C,G,] !^![F,,F,] z || %66
V:3
 x3/2 | x4 | x4 | z (B,/=B,/ (C2) | A,)(B,/=B,/ C)A, | x4 | x4 | x4 | x4 | x4 | z (B,/=B,/ (C2) | %11
 A,)(B,/=B,/ C2) | x4 | x4 | x4 | z (B,/=B,/ (C2) | A,)(B,/=B,/ C)A, | x4 | x4 | x4 | x4 | x4 | %22
 z (B,/=B,/ (C2) | A,)(F,/^F,/ (G,2) | E,)E,/C,/- x2 ||[K:Bb] F,4 | F,4 | x4 | x4 |: x4 | x4 | x4 | %32
 x4 | x4 | x4 | x4 | x4 | x4 | x4 | x4 | x4 | x4 | x4 | x4 |1 x4 :|2 x4 |: x4 | x4 | x4 | x4 | x4 | %51
 x4 |1 x4 | x4 :|2 x4 | x4 |:[K:F] z [B,_DF][B,DF] z | z [B,_DF][B,DF] z | z [A,CF][A,CF] z | %59
 z [A,CF][A,CF] z | z [B,CE][B,CE] z | z [B,CE][B,CE] z |1 x4 | x4 :|2 x4 | x4 || %66
V:4
 x3/2 | x4 | x4 | x4 | x4 | x4 | x4 | x4 | x4 | x4 | x4 | x4 | x4 | x4 | x4 | x4 | x4 | x4 | x4 | %19
 x4 | x4 | x4 | x4 | x4 | x4 ||[K:Bb] x4 | x4 | x4 | x4 |: (=E4 | (_E4) | D4-) | D z z2 | (=E4 | %34
 (_E4) | D4-) | D z z2 | (=E4 | (_E4) | D4-) | D z z2 | x4 | x4 | x4 |1 x4 :|2 x4 |: x4 | x4 | x4 | %49
 x4 | x4 | x4 |1 x4 | x4 :|2 x4 | x4 |:[K:F] x4 | x4 | x4 | x4 | x4 | x4 |1 x2 !>!B<(!^![=F-^G] | %63
 [FA]) z z2 :|2 x4 | x4 || %66

